lib/radiotmp/nrk-media-playlist-remove.svg

<svg width="24" height="24" viewBox="0 0 24 24" fill="none" xmlns="http://www.w3.org/2000/svg">
<g opacity="0.3">
<path d="M1 5H11V7H1V5Z" fill="black"/>
<path d="M1 11H11V13H1V11Z" fill="black"/>
<path d="M21 17H1V19H21V17Z" fill="black"/>
</g>
<path d="M22.2426 6.17154L20.8284 4.75732L18 7.58575L15.1715 4.75732L13.7573 6.17154L16.5858 8.99996L13.7573 11.8284L15.1715 13.2426L18 10.4142L20.8284 13.2426L22.2426 11.8284L19.4142 8.99996L22.2426 6.17154Z" fill="black"/>
</svg>

<svg xmlns="http://www.w3.org/2000/svg" viewBox="0 0 24 24"><g fill="#000" opacity=".3"><path d="M1 5h10v2H1V5ZM1 11h10v2H1v-2ZM21 17H1v2h20v-2Z"/></g><path fill="#000" d="m22.243 6.172-1.415-1.415L18 7.586l-2.829-2.829-1.414 1.415L16.586 9l-2.829 2.828 1.415 1.415L18 10.414l2.828 2.829 1.415-1.415L19.414 9l2.829-2.828Z"/></svg>
